!!!OTL: Shi bei jiu
!!!ARE: Asia, China, near Shanxi, Chunhua
!! Hanzu minge gailun, 223
!!!SCT: C1715
!!!YEM: Copyright 1995, estate of Helmut Schaffrath.
**kern
*ICvox
*Ivox
*M2/4
*k[b-]
*F:
{4f
8f
8d
=1
2cc
=2
8dd
8ff
8cc
8b-
=3
2g}
=4
{8cc
8a
4cc
=5
8g
8a
8g
8f
=6
8d
8g
8f
8d
=7
2c}
=8
{8c
8d
4f
=9
4g
4cc
=10
16g
16a
8g
8g
8c
=11
2d}
=12
{8cc
8b-
8cc
8b-
=13
8g
8cc
8b-
8g
=14
8f
8c
8r
8cc
=15
4.g
8f}
=16
{4.e-
8f
=17
8g
8f
8e-
8d
=18
4.c
8f
=19
2c}
==
!!!AGN: Xiaodiao, MengjiangnÅ diao. NannÅ qing
!!!ONB: ESAC (Essen Associative Code) Database: ZHEN
!!!AMT: simple duple
!!!AIN: vox
!!!EED: Helmut Schaffrath
!!!EEV: 1.0
*-
